!!!!SEGMENT: pl-sa--11-a-i-11--005_anonim--passio-domini-nostri-oto-przybity-do-krzylza.krn
!!!cenid: 18xx:1327
!!!COM: Anonim
!!!COM-rismID: pe30004985
!!!CDT:
!!!CNT:
!!!OPR: Passio Domini Nostri
!!!OTL: Oto przybity do krzyża
!!!OMV: 005
!!!PDT: 1815
!!!AGN: Sacred
!!!SMS-siglum: PL-SA
!!!SMS-shelfmark: 11/A I 11
!!!SMS-shelfwork: 001-005 M
!!!SMS-variant:
!!!SMS-altvar:
!!!NIFC-rismSourceID: 1001076834
!!!NIFC-islandoraID:
!!!URL-pdf-islandora:
!!!URL-scan: https://bc.bdsandomierz.pl/dlibra/publication/1277/edition/1245/content @EN{Scan on Cyfrowa Biblioteka Diecezjalna w Sandomierzu} @PL{Skany w portalu Cyfrowa Biblioteka Diecezjalna w Sandomierzu}
!!!ONB-nifc: UWAGA: części Pasji: 1. Pars I – Passio Domini nostri, 2. Pars I – Plankt – Witaj Jezu, 3. Pars II – Apprehendit, 4. Pars II – Tolle crucifige, 5. Pars II – Plankt – Oto przybity do krzyża, 6. Pars III – Orabat
!!!AIN: 1 organ 2 soprn 2 violn
!!!key: a
**kern	**dynam	**kern	**dynam	**kern	**dynam	**kern	**text	**kern	**text
*part5	*part5	*part4	*part4	*part3	*part3	*part2	*part2	*part1	*part1
*staff5	*	*staff4	*	*staff3	*	*staff2	*staff2	*staff1	*staff1
*I"Organo.	*	*I"Violino Secundo.	*	*I"Violino Primo.	*	*I"Canto 2do.	*	*I"Canto Primo.	*
*I'org	*	*I'vl 2	*	*I'vl 1	*	*I'S 2	*	*I'S 1	*
*Iorgan	*	*Ivioln	*	*Ivioln	*	*Isoprn	*	*Isoprn	*
*ICklav	*	*ICstr	*	*ICstr	*	*ICvox	*	*ICvox	*
*clefF4	*	*clefG2	*	*clefG2	*	*clefC1	*	*clefC1	*
*k[]	*	*k[]	*	*k[]	*	*k[]	*	*k[]	*
*a:	*	*a:	*	*a:	*	*a:	*	*a:	*
*M3/4	*	*M3/4	*	*M3/4	*	*M3/4	*	*M3/4	*
=1	=1	=1	=1	=1	=1	=1	=1	=1	=1
*2\right	*	*2\right	*	*2\right	*	*2\right	*	*2\right	*
!	!	!LO:TX:b:t=Oto przybity.	!	!LO:TX:b:t=Oto przybity	!	!LO:TX:t=8	!	!LO:TX:t=8	!
!LO:TX::b:t=Oto przybity.	!	!LO:TX:t=Plankt.	!	!LO:TX:t=Plankt.	!	!	!	!	!
4A\	.	8r	.	2ee\	.	2.r	.	2.r	.
.	.	8c/ 8e	.	.	.	.	.	.	.
*	*	*tremolo	*	*	*	*	*	*	*
4r	.	8c/ 8eL	.	.	.	.	.	.	.
.	.	8c/ 8e	.	.	.	.	.	.	.
4r	.	8c/ 8e	.	8cc\L	.	.	.	.	.
.	.	8c/ 8eJ	.	8a\J	.	.	.	.	.
=2	=2	=2	=2	=2	=2	=2	=2	=2	=2
8r	.	8r	.	8a/L	.	2.r	.	2.r	.
8E\L	.	8B/ 8e	.	8g#X/J	.	.	.	.	.
8G#X\	.	8B/ 8eL	.	2g#/	.	.	.	.	.
8B\	.	8B/ 8e	.	.	.	.	.	.	.
8G#\	.	8B/ 8e	.	.	.	.	.	.	.
8E\J	.	8B/ 8eJ	.	.	.	.	.	.	.
*	*	*Xtremolo	*	*	*	*	*	*	*
=3	=3	=3	=3	=3	=3	=3	=3	=3	=3
4B\	.	2dd\	.	2ff\	.	2.r	.	2.r	.
4r	.	.	.	.	.	.	.	.	.
4r	.	8cc\L	.	8ee\L	.	.	.	.	.
.	.	8b\J	.	8dd\J	.	.	.	.	.
=4	=4	=4	=4	=4	=4	=4	=4	=4	=4
8r	.	8b\L	.	8dd\L	.	2.r	.	2.r	.
8B\L	.	8a\J	.	8cc\J	.	.	.	.	.
8G#X\	.	2b\	.	2dd\	.	.	.	.	.
8B\	.	.	.	.	.	.	.	.	.
8G#X\	.	.	.	.	.	.	.	.	.
8E\J	.	.	.	.	.	.	.	.	.
=5	=5	=5	=5	=5	=5	=5	=5	=5	=5
4A\	.	4cc\	.	4ee\	.	2.r	.	2.r	.
8AA/	.	8cc\L	.	8ee\L	.	.	.	.	.
8r	.	8cc\	.	8aa\	.	.	.	.	.
4r	.	8b\	.	8gg#X\	.	.	.	.	.
.	.	8dd\J	.	8ff\J	.	.	.	.	.
=6	=6	=6	=6	=6	=6	=6	=6	=6	=6
4A\	.	16dd\LL	.	16ff\LL	.	2.r	.	2.r	.
.	.	16cc\J	.	16ee\J	.	.	.	.	.
.	.	8cc\J	.	8ee\J	.	.	.	.	.
8AA/	.	8cc\L	.	8ee\L	.	.	.	.	.
8r	.	8cc\	.	8aa\	.	.	.	.	.
4r	.	8b\	.	8gg#X\	.	.	.	.	.
.	.	8dd\J	.	8ff\J	.	.	.	.	.
=7	=7	=7	=7	=7	=7	=7	=7	=7	=7
4A\	.	(8cc\L	.	(8ee\L	.	2.r	.	2.r	.
.	.	8a\	.	8cc\	.	.	.	.	.
4AA/	.	8dd\	.	8ff\	.	.	.	.	.
.	.	8cc\	.	8ee\	.	.	.	.	.
4AA/	.	8b\	.	8dd\	.	.	.	.	.
.	.	8a\J)	.	8cc\J)	.	.	.	.	.
=8	=8	=8	=8	=8	=8	=8	=8	=8	=8
8r	.	16b/LL	.	(16dd\LL	.	2.r	.	2.r	.
.	.	16a/	.	16cc\	.	.	.	.	.
!LO:TX:t=P:problem=mixed beam	!	!	!	!	!	!	!	!	!
8E\L	.	16g#X/	.	16b\	.	.	.	.	.
.	.	16a/JJ	.	16cc\JJ)	.	.	.	.	.
8G#X\	.	4g#X/	.	4b\	.	.	.	.	.
8B\	.	.	.	.	.	.	.	.	.
8e\	.	4r	.	4r	.	.	.	.	.
8E/J	.	.	.	.	.	.	.	.	.
=9	=9	=9	=9	=9	=9	=9	=9	=9	=9
4A\	pp	4cc\	pp	4ee'\	pp	4cc\	O-	4ee\	O-
4r	.	4b\	.	4dd'\	.	4b\	-to	4dd\	-to
4r	.	4a\	.	4cc'\	.	4a\	przy-	4cc\	przy-
=10	=10	=10	=10	=10	=10	=10	=10	=10	=10
8r	.	4a/	.	4cc\	.	4a\	-bi-	4cc\	-bi-
8E\	.	.	.	.	.	.	.	.	.
*tremolo	*	*	*	*	*	*	*	*	*
8E\L	.	4g#X/	.	4b\	.	4g#X\	-ty	4b\	-ty
8E\	.	.	.	.	.	.	.	.	.
8E\	.	4r	.	4r	.	4r	.	4r	.
8E\J	.	.	.	.	.	.	.	.	.
=11	=11	=11	=11	=11	=11	=11	=11	=11	=11
4G#X\	.	8dd\L	.	8ff\L	.	8dd\	do	8ff\	do
.	.	8dd\J	.	8ff\J	.	8dd\	Krzy-	8ff\	Krzy-
4r	.	4dd\	.	4ff\	.	4dd\	-ża	4ff\	-ża
4r	.	4cc\	.	4ee\	.	4cc\	Sro-	4ee\	sro-
!	!	!LO:LB:g=original	!	!	!	!	!	!	!
=12	=12	=12	=12	=12	=12	=12	=12	=12	=12
8r	.	4b\	.	4ee\	.	4cc\	-gie-	4ee\	-gie-
*Xtremolo	*	*	*	*	*	*	*	*	*
8E\L	.	.	.	.	.	.	.	.	.
8E\	.	2b\	.	2dd\	.	2b\	-go	2dd\	-go
8E\J	.	.	.	.	.	.	.	.	.
8G#X\L	.	.	.	.	.	.	.	.	.
8B\J	.	.	.	.	.	.	.	.	.
=13	=13	=13	=13	=13	=13	=13	=13	=13	=13
!	!	!	!	!	!	!	!	!LO:SIC:l:s=Oj	!
4A\	.	4cc\	.	4ee\	.	4a\	Oy-	4ee\	Oy-
4r	.	4a\	.	4cc\	.	4a\	-ciec	4cc\	-ciec
!	!	!	!	!	!	!	!	!LO:SIC:l:s=Naj	!
4r	.	4a\	.	4a\	.	4a\	Nay-	4a\	Nay-
!	!	!	!	!LO:LB:g=original	!	!	!	!	!
=14	=14	=14	=14	=14	=14	=14	=14	=14	=14
8d'\L	.	4dd\	.	4ff\	.	4dd\	-mil-	4ff\	-mil-
8c'\	.	.	.	.	.	.	.	.	.
8B'\	.	4dd\	.	4ff\	.	4dd\	-szy	4ff\	-szy
8A'\	.	.	.	.	.	.	.	.	.
8G#X'\	.	4r	.	4r	.	4r	.	4r	.
8E'\J	.	.	.	.	.	.	.	.	.
=15	=15	=15	=15	=15	=15	=15	=15	=15	=15
4C/	.	8cc\L	.	8ee\L	.	8a\	i	8ee\	i
!	!	!	!	!	!	!	!	!LO:SIC:l:s=Stwór	!
.	.	8a\J	.	8cc\J	.	8a\	Stwor-	8cc\	Stwor-
4D/	.	4d/	.	4b/	.	4a\	-ca	4b\	-ca
4D#X/	.	4c/	.	4a/	.	4a\	Wszys-	4a\	Wszys-
=16	=16	=16	=16	=16	=16	=16	=16	=16	=16
4E\	.	4c/	.	4a/	.	4ee\	-tkie-	4a\	-tkie-
4EE/	.	4B/	.	4g#X/	.	4ee\	-go	4g#X\	-go
4r;	.	4r;	.	4r;	.	4r;	.	4r;	.
!LO:LB:g=original	!	!	!	!	!	!	!	!LO:LB:g=original	!
=17	=17	=17!|:	=17	=17!|:	=17	=17!|:	=17	=17!|:	=17
!	!	!	!	!	!	!LO:SIC:l:s=Włócz	!	!LO:SIC:l:s=Włócz	!
*tremolo	*	*	*	*	*	*	*	*	*
8E\L	.	4g#X/	.	4b\	.	4g#X\	Włocz-	4b\	Włocz-
8E\	.	.	.	.	.	.	.	.	.
!	!	!	!	!	!	!LO:SIC:l:s=nią	!	!	!
8E\	.	4g#/	.	4b\	.	4g#\	-nio	4b\	-nią
8E\	.	.	.	.	.	.	.	.	.
8E\	.	4b/	.	4dd\	.	4b\	mi-	4dd\	mi-
8E\J	.	.	.	.	.	.	.	.	.
=18	=18	=18	=18	=18	=18	=18	=18	=18	=18
!	!	!	!	!	!	!LO:SIC:l:s=łoś	!	!	!
8E\L	.	4a/	.	4cc\	.	4a\	-łos-	4cc\	-łoś-
8E\	.	.	.	.	.	.	.	.	.
!	!	!	!	!	!	!	!	!LO:SIC:l:s=ci	!
8E\	.	4g#X/	.	4b\	.	4g#X\	-ci	4b\	-ći
8E\	.	.	.	.	.	.	.	.	.
8E\	.	4r	.	4r	.	4r	.	4r	.
8E\J	.	.	.	.	.	.	.	.	.
!	!	!	!	!	!	!LO:LB:g=original	!	!	!
=19	=19	=19	=19	=19	=19	=19	=19	=19	=19
8E\L	.	8g#X/L	.	8b\L	.	8g#X/	bok	8b\	bok
8E\	.	8g#/J	.	8b\J	.	8g#/	prze-	8b\	prze-
!	!	!	!	!	!	!LO:SIC:l:s=kłu	!	!LO:SIC:l:s=kłu	!
8E\	.	4g#/	.	4b\	.	4g#/	-kło-	4b\	-kło-
8E\	.	.	.	.	.	.	.	.	.
8E\	.	4b/	.	4dd\	.	4b\	-ty	4dd\	-ty
8E\J	.	.	.	.	.	.	.	.	.
=20	=20	=20	=20	=20	=20	=20	=20	=20	=20
8E\L	.	4a/	.	4cc\	.	4a/	ma-	4cc\	ma-
8E\	.	.	.	.	.	.	.	.	.
!	!	!	!	!	!	!LO:SIC:l:s=jąc	!	!LO:SIC:l:s=jąc	!
8E\	.	4g#X/	.	4b\	.	4g#X/	-iąc	4b\	-iąc
8E\	.	.	.	.	.	.	.	.	.
8E\	.	4r	.	4r	.	4r	.	4r	.
8E\J	.	.	.	.	.	.	.	.	.
=21	=21	=21	=21	=21	=21	=21	=21	=21	=21
4A\	.	4cc\	.	4ee\	.	4a\	wszys-	4ee\	Wszys-
4A\	.	4a\	.	4cc\	.	4a\	-tek	4cc\	-tek
4A\	.	4a\	.	4a/	.	4a\	wo-	4a\	wo-
=22	=22	=22	=22	=22	=22	=22	=22	=22	=22
4G#X\	.	8dd\L	.	8ff\L	.	8dd\L	-Ko-	8ff\L	-Ko-
.	.	8cc\J	.	8ee\J	.	8cc\J	.	8ee\J	.
4G#\	.	2b\	.	2dd\	.	2b\	-ło	2dd\	-ło
4G#\	.	.	.	.	.	.	.	.	.
=23	=23	=23	=23	=23	=23	=23	=23	=23	=23
4A\	.	8cc\L	.	8ee\L	.	8a\	Krwią	8ee\	Krwią
.	.	8a\J	.	8cc\J	.	8a\	dro-	8cc\	dro-
4D\	.	4d/	.	4b/	.	4ee\	-gą	4b\	-gą
4E\	.	4B/	.	4g#X/	.	4e/	Spły-	4g#X\	Spły-
=24	=24	=24	=24	=24	=24	=24	=24	=24	=24
4AA/	.	4c/	.	4a/	.	4a\	-wa-	4a\	-wa-
!	!	!	!	!	!	!LO:SIC:l:s=jąc	!	!LO:SIC:l:s=jąc	!
8AA/L	.	4c/	.	4a/	.	4a\	-iąc	4a\	-iąc
8BB/	.	.	.	.	.	.	.	.	.
8C/	.	4r	.	4r	.	4r;	.	4r;	.
8AA/J	.	.	.	.	.	.	.	.	.
=25	=25	=25:|!	=25	=25:|!	=25	=25:|!	=25	=25:|!	=25
!	!	!	!	!	!	!LO:SIC:l:s=Włócz	!	!LO:SIC:l:s=Włócz	!
!	!	!LO:TX:t=P:problem=8 taktów zapisane powtórką	!	!LO:TX:t=P:problem=8 taktów zapisane powtórką	!	!LO:TX:t=P:problem=8 taktów zapisane powtórką	!	!LO:TX:t=P:problem=8 taktów zapisane powtórką	!
8E\L	.	4g#X/	.	4b\	.	4g#X\	Włocz-	4b\	Włocz-
8E\	.	.	.	.	.	.	.	.	.
!	!	!	!	!	!	!LO:SIC:l:s=nią	!	!	!
8E\	.	4g#/	.	4b\	.	4g#\	-nio	4b\	-nią
8E\	.	.	.	.	.	.	.	.	.
8E\	.	4b/	.	4dd\	.	4b\	mi-	4dd\	mi-
8E\J	.	.	.	.	.	.	.	.	.
=26	=26	=26	=26	=26	=26	=26	=26	=26	=26
!	!	!	!	!	!	!LO:SIC:l:s=łoś	!	!	!
8E\L	.	4a/	.	4cc\	.	4a\	-łos-	4cc\	-łoś-
8E\	.	.	.	.	.	.	.	.	.
!	!	!	!	!	!	!	!	!LO:SIC:l:s=ci	!
8E\	.	4g#X/	.	4b\	.	4g#X\	-ci	4b\	-ći
8E\	.	.	.	.	.	.	.	.	.
8E\	.	4r	.	4r	.	4r	.	4r	.
8E\J	.	.	.	.	.	.	.	.	.
=27	=27	=27	=27	=27	=27	=27	=27	=27	=27
8E\L	.	8g#X/L	.	8b\L	.	8g#X/	bok	8b\	bok
8E\	.	8g#/J	.	8b\J	.	8g#/	prze-	8b\	prze-
!	!	!	!	!	!	!LO:SIC:l:s=kłu	!	!LO:SIC:l:s=kłu	!
8E\	.	4g#/	.	4b\	.	4g#/	-kło-	4b\	-kło-
8E\	.	.	.	.	.	.	.	.	.
8E\	.	4b/	.	4dd\	.	4b\	-ty	4dd\	-ty
8E\J	.	.	.	.	.	.	.	.	.
=28	=28	=28	=28	=28	=28	=28	=28	=28	=28
8E\L	.	4a/	.	4cc\	.	4a/	ma-	4cc\	ma-
8E\	.	.	.	.	.	.	.	.	.
!	!	!	!	!	!	!LO:SIC:l:s=jąc	!	!LO:SIC:l:s=jąc	!
8E\	.	4g#X/	.	4b\	.	4g#X/	-iąc	4b\	-iąc
8E\	.	.	.	.	.	.	.	.	.
8E\	.	4r	.	4r	.	4r	.	4r	.
8E\J	.	.	.	.	.	.	.	.	.
*Xtremolo	*	*	*	*	*	*	*	*	*
=29	=29	=29	=29	=29	=29	=29	=29	=29	=29
4A\	.	4cc\	.	4ee\	.	4a\	wszys-	4ee\	Wszys-
4AA/	.	4a\	.	4cc\	.	4a\	-tek	4cc\	-tek
4A\	.	4a\	.	4a/	.	4a\	wo-	4a\	wo-
=30	=30	=30	=30	=30	=30	=30	=30	=30	=30
4G#X\	.	8dd\L	.	8ff\L	.	8dd\L	-Ko-	8ff\L	-Ko-
.	.	8cc\J	.	8ee\J	.	8cc\J	.	8ee\J	.
4E\	.	2b\	.	2dd\	.	2b\	-ło	2dd\	-ło
4G#\	.	.	.	.	.	.	.	.	.
=31	=31	=31	=31	=31	=31	=31	=31	=31	=31
4A\	.	8cc\L	.	8ee\L	.	8a\	Krwią	8ee\	Krwią
.	.	8a\J	.	8cc\J	.	8a\	dro-	8cc\	dro-
4D\	.	4d/	.	4b/	.	4ee\	-gą	4b\	-gą
4E\	.	4B/	.	4g#X/	.	4e/	Spły-	4g#X\	Spły-
=32	=32	=32	=32	=32	=32	=32	=32	=32	=32
4AA/	.	4c/	.	4a/	.	4a\	-wa-	4a\	-wa-
!	!	!	!	!	!	!LO:SIC:l:s=jąc	!	!LO:SIC:l:s=jąc	!
4A\	.	4c/	.	4a/	.	4a\	-iąc	4a\	-iąc
4r;	.	4r	.	4r	.	4r;	.	4r;	.
==	==	==	==	==	==	==	==	==	==
*-	*-	*-	*-	*-	*-	*-	*-	*-	*-
!!!RDF**dynam: pp = pp.
!!!system-decoration: [(s1,s2)][(s3,s4)]s5
!!!ENC: Kamil Watkowski
!!!END: 2020-12-07
!!!ENC: Urszula Świątek
!!!END: 2022-03-27
